brandFactory_export/3.Masa/Mano izquierda_3Masa.svg

<?xml version="1.0" encoding="UTF-8"?>
<svg width="24px" height="24px" viewBox="0 0 24 24" version="1.1" xmlns="http://www.w3.org/2000/svg" xmlns:xlink="http://www.w3.org/1999/xlink">
    <title>3.Masa/Mano izquierda_3Masa</title>
    <g id="Symbols" stroke="none" stroke-width="1" fill="none" fill-rule="evenodd">
        <g id="3.Masa/Mano-izquierda_3Masa" fill="#5CB615" fill-rule="nonzero">
            <path d="M8.9512605,19.2605042 C8.9512605,18.9210084 8.99831933,18.6117647 9.09243697,18.3327731 C8.06386555,18.0470588 7.45210084,17.2033613 7.45210084,15.9932773 C7.45210084,15.6537815 7.50252101,15.3411765 7.59327731,15.0621849 C6.57478992,14.7731092 5.9697479,13.9327731 5.9697479,12.7294118 C5.9697479,12.4336134 6.00672269,12.1579832 6.07731092,11.9092437 L2.59495798,11.9092437 C0.994957983,11.9092437 0,10.9277311 0,9.34789916 C0,7.82857143 0.924369748,6.89747899 2.54117647,6.79327731 L11.4554622,6.79327731 C10.7630252,6.38655462 10.2789916,6.02016807 9.92941176,5.58319328 C9.58319328,5.15294118 9.41176471,4.63865546 9.41176471,4.13445378 C9.41176471,3.65042017 9.5697479,3.17310924 9.88907563,2.77647059 C10.5142857,1.99663866 11.5798319,1.80504202 12.605042,2.28571429 C14.3428571,3.10252101 17.1361345,4.47731092 19.3815126,5.58319328 C20.7798319,6.27226891 21.989916,6.86722689 22.3529412,7.03529412 C22.7361345,7.21008403 23.6268908,7.62352941 23.6268908,8.56134454 L23.6268908,17.9058824 C23.6268908,19.0857143 23.2571429,20.0907563 22.5882353,20.7394958 C21.9226891,21.3848739 20.9915966,21.7109244 19.8252101,21.7109244 L11.4285714,21.7109244 C9.89915966,21.7042017 8.9512605,20.7697479 8.9512605,19.2605042 Z" id="Path"></path>
        </g>
    </g>
</svg>

<svg width="24" height="24" viewBox="0 0 24 24" xmlns="http://www.w3.org/2000/svg"><path d="M8.951 19.26c0-.339.047-.648.141-.927-1.028-.286-1.64-1.13-1.64-2.34 0-.34.05-.652.141-.93-1.018-.29-1.623-1.13-1.623-2.334 0-.295.037-.571.107-.82H2.595C.995 11.91 0 10.928 0 9.348c0-1.52.924-2.45 2.541-2.555h8.914c-.692-.406-1.176-.773-1.526-1.21a2.313 2.313 0 01-.517-1.449c0-.484.158-.96.477-1.358.625-.78 1.69-.971 2.716-.49 1.738.817 4.531 2.191 6.777 3.297 1.398.69 2.608 1.284 2.97 1.452.384.175 1.275.589 1.275 1.526v9.345c0 1.18-.37 2.185-1.039 2.833-.665.646-1.596.972-2.763.972H11.43c-1.53-.007-2.478-.941-2.478-2.45z" fill="#5CB615" fill-rule="nonzero"/></svg>
